X:1
T:Merry, Merry Christmas Time
T:Merry, Merry Christmas Time
T:Frederick W. Peace
T:C. F. Weape, 1906
T:Public Domain Courtesy of the Cyber Hymnal™
T:Public Domain Courtesy of the Cyber Hymnal™
C:Frederick W. Peace
Z:Public Domain
Z:Courtesy of the Cyber Hymnal™
%%score ( 1 2 ) ( 3 4 )
L:1/8
Q:1/4=107
M:4/4
K:C
V:1 treble 
V:2 treble 
V:3 bass 
V:4 bass 
V:1
 [CEc]2 [CE]2 [CEB]2 [CE]2 | [CEA]2 [CE]2 [CE]4 | GAGA [EG]2 [Ec]2 | B8 | [Fd]2 [FB]2 [Ec]2 [EA]2 | %5
w: 1.~Waft the tid- ings|far and near,|Mer- ry, mer- ry Christ- mas|time;|Ring it out with|
w: 2.~Wel- come, wel- come,|once a year,|Mer- ry, mer- ry Christ- mas|time;|Hear it ring- ing|
w: 3.~Sing a- loud with|ho- ly glee,|Mer- ry, mer- ry Christ- mas|time;|Tell it out o’er|
 [FB]2 [DF]2 [DF]4 | ABAB [FA]2 [DFB]2 | [CE]8 | DE^FG [CA]2 [CD]2 | [B,DB]2 [B,DG]2 D4 | %10
w: right good cheer,|Mer- ry, mer- ry Christ- mas|time.|Mer- ri- ly we wel- come|Christ- mas day,|
w: loud and clear,|Mer- ry, mer- ry Christ- mas|time.|It is not the time for|us to mourn,|
w: land and sea,|Mer- ry, mer- ry Christ- mas|time.|Ring the mer- ry bells in|tune- ful lay,|
 DE^FG [CA]2 [CD]2 | [B,DB]2 [DGd]2 d4 [DG]2 | GABc [Fd]2 [FG]2 | [Ec]2 [EGe]2 e4 [EG]2 | %14
w: Cheer- i- ly we sing our|Christ- mas lay; List|* the mer- ry strains from|far a- way, Mer-|
w: Cast a- way all gloom, ’tis|Christ- mas morn; Wake|* from earth- ly sleep, for|Christ is born, Mer-|
w: Spread the joy- ful news, ’tis|Christ- mas day; Ev-|* ery- one is hap- py,|blithe and gay, Mer-|
 dcBA [CE]2 [C^F]2 | [B,DG]8 ||"^Refrain" [CEc]2 [CE]2 [CEB]2 [CE]2 | [CEA]2 [CE]2 [CE]4 | %18
w: * ry, mer- ry Christ- mas|time.|||
w: * ry, mer- ry Christ- mas|time.|Waft the tid- ings|far and near,|
w: * ry, mer- ry Christ- mas|time.|||
 GAGA [EG]2 [Ec]2 | B8 ([B,F]2 [B,F]2 [B,F]2) | !>!G2 !>!^G2 !>!A2 !>!^A2 | !>!B2 !>!c2 !>!d4 | %22
w: ||||
w: Mer- ry, mer- ry Christ- mas|time; Ring * *|* it out with|right good cheer,|
w: ||||
 FAGA [FG]2 [Fd]2 | c8 |] %24
w: ||
w: Mer- ry, mer- ry Christ- mas|time.|
w: ||
V:2
 x8 | x8 | E2 E2 x4 | (F2 F2 F2 F2) | x8 | x8 | F2 F2 x4 | x8 | C2 C2 x4 | x4 (B,2 D2) | C2 C2 x4 | %11
 x4 [DG]2 x4 | F2 F2 x4 | x4 [EG]2 x4 | [DG]2 D2 x4 | x8 || x8 | x8 | E2 E2 x4 | [B,F]2 x12 | x8 | %21
 x8 | F2 F2 x4 | (E2 F2 E4) |] %24
V:3
 [C,G,]2 [G,,G,]2 [C,G,]2 [G,,G,]2 | [C,G,]2 [G,,G,]2 ([C,G,]2 [G,,G,]2) | %2
 [C,G,]2 [G,,G,]2 [C,G,]2 [G,,G,]2 | ([D,G,]2 [G,,G,]2 [D,G,]2 [G,,G,]2) | %4
 [G,B,]2 [G,D]2 [G,C]2 [G,C]2 | [G,D]2 [G,B,]2 ([G,B,]2 [D,B,]2) | CDCD [G,C]2 G,2 | %7
 G,4 (A,,2 G,,2) | ^F,G,A,G, [D,F,]2 [D,F,]2 | [G,,G,]2 [G,,G,]2 ([G,,G,]2 [B,,G,]2) | %10
 ^F,G,A,G, [D,F,]2 [D,F,]2 | [G,,G,]2 [G,B,]2 ([G,B,]2 [G,B,]2) x2 | B,CDC [G,B,]2 [G,B,]2 | %13
 [C,C]2 [C,C]2 ([^C,_B,]2 [C,B,]2) x2 | B,A,G,^F, [D,G,]2 [D,A,]2 | ([G,,G,]A,,B,,C,D,E,F,G,) || %16
 [C,G,]2 [G,,G,]2 [C,G,]2 [G,,G,]2 | [C,G,]2 [G,,G,]2 ([C,G,]2 [G,,G,]2) | %18
 [C,G,]2 [G,,G,]2 [C,G,]2 [G,,G,]2 | ([D,G,]2 [G,,G,]2 [D,G,]2 [G,,G,]2) x6 | %20
 (G,,G,) (^G,,^G,) (A,,A,) (^A,,^A,) | (B,,B,) (C,C) (D,DC,D) | B,CB,C [G,B,]2 [G,B,]2 | %23
 (C2 A,2 G,4) |] %24
V:4
 x8 | x8 | x8 | x8 | x8 | x8 | G,2 G,2 x G,2 x | C,2 B,,2 x4 | D,2 D,2 x4 | x8 | D,2 D,2 x4 | x10 | %12
 G,2 G,2 x4 | x10 | D,2 D,2 x4 | x8 || x8 | x8 | x8 | x14 | x8 | x8 | G,2 G,2 x4 | C,8 |] %24

